X: 4
T: Whup Jamboree
P: piffero primo b0061
O: Bill Krug
F: http://ancients.sudburymuster.org/mus/med/pdf/wupprussC0.pdf
Z: 2020 John Chambers <jc:trillian.mit.edu>
M: 2/4
L: 1/16
K: Bm
F2 |\
B3c d2e2 | f3f e2de | f2f2 B2B2 | cdcB A2F2 |\
B3c d2e2 | f3f e2a2 | fgfe d2F2 | B6 :|
|: f2 |\
B3c d2e2 | f3f e2z2 | a2a2 a2f2 | aa2f a2b2 |\
B3c d2e2 | f3f e2a2 |1 fgfe d2F2 | B6 :|2 fgfe d2f2 | b6 |]


